sec_certs_page/static/img/logo_negative.svg

<?xml version="1.0" encoding="UTF-8" standalone="no"?>
<svg
   width="176.52061mm"
   height="48.240047mm"
   viewBox="0 0 176.52061 48.240048"
   version="1.1"
   id="svg8"
   sodipodi:docname="logo_negative.svg"
   inkscape:version="1.3.2 (091e20ef0f, 2023-11-25, custom)"
   inkscape:export-filename="logo.png"
   inkscape:export-xdpi="144.601"
   inkscape:export-ydpi="144.601"
   xmlns:inkscape="http://www.inkscape.org/namespaces/inkscape"
   xmlns:sodipodi="http://sodipodi.sourceforge.net/DTD/sodipodi-0.dtd"
   xmlns="http://www.w3.org/2000/svg"
   xmlns:svg="http://www.w3.org/2000/svg"
   xmlns:rdf="http://www.w3.org/1999/02/22-rdf-syntax-ns#"
   xmlns:cc="http://creativecommons.org/ns#"
   xmlns:dc="http://purl.org/dc/elements/1.1/">
  <sodipodi:namedview
     pagecolor="#ffffff"
     bordercolor="#666666"
     borderopacity="1"
     objecttolerance="10"
     gridtolerance="10"
     guidetolerance="10"
     inkscape:pageopacity="0"
     inkscape:pageshadow="2"
     inkscape:window-width="1920"
     inkscape:window-height="1125"
     id="namedview12"
     showgrid="false"
     inkscape:zoom="1.1012253"
     inkscape:cx="315.55759"
     inkscape:cy="205.67998"
     inkscape:window-x="0"
     inkscape:window-y="0"
     inkscape:window-maximized="1"
     inkscape:current-layer="svg8"
     inkscape:showpageshadow="0"
     inkscape:pagecheckerboard="true"
     inkscape:deskcolor="#d1d1d1"
     inkscape:document-units="mm" />
  <defs
     id="defs2" />
  <metadata
     id="metadata5">
    <rdf:RDF>
      <cc:Work
         rdf:about="">
        <dc:format>image/svg+xml</dc:format>
        <dc:type
           rdf:resource="http://purl.org/dc/dcmitype/StillImage" />
      </cc:Work>
    </rdf:RDF>
  </metadata>
  <g
     id="layer1"
     transform="translate(-34.826911,-145.56049)">
    <path
       id="rect903"
       style="opacity:1;fill:#000000;stroke:none;stroke-width:1.29835;stroke-linecap:square;paint-order:markers stroke fill"
       d="M 71.607612 156.16191 L 71.607612 183.51528 L 211.30709 183.51528 L 199.46647 169.81947 L 211.3474 156.16191 L 71.607612 156.16191 z M 178.39748 160.23143 L 179.64236 160.23143 L 179.64236 163.83844 L 183.02045 163.83844 L 183.02045 165.00685 L 179.64236 165.00685 L 179.64236 173.92207 C 179.64236 175.19207 180.35355 176.10643 181.31874 176.10643 C 181.95374 176.10643 182.58857 175.85233 183.04577 175.47133 L 183.68087 176.43664 C 182.99507 176.97004 182.13126 177.27483 181.24226 177.27483 C 179.56587 177.27483 178.39748 175.87786 178.39748 173.92207 L 178.39748 165.00685 L 176.16247 165.00685 L 176.16247 163.83844 L 178.39748 163.83844 L 178.39748 160.23143 z M 93.511184 163.53355 C 95.085983 163.53355 96.787724 164.09245 98.210122 165.00685 L 97.524376 165.97165 C 96.254377 165.15885 94.806583 164.70196 93.511184 164.70196 C 91.783986 164.70196 90.336184 165.64164 90.336184 166.91164 C 90.336184 168.18164 91.402809 168.89291 94.069807 169.73111 C 96.813004 170.59471 98.33673 171.5851 98.33673 173.6425 C 98.33673 175.69989 96.25427 177.27483 93.714273 177.27483 C 91.860075 177.27483 89.827827 176.56348 88.278429 175.31888 L 88.989496 174.3794 C 90.488095 175.4716 92.190274 176.10643 93.714273 176.10643 C 95.619271 176.10643 97.092361 175.09034 97.092361 173.79494 C 97.092361 172.32174 95.873022 171.55955 93.460025 170.84835 C 90.310428 169.88315 89.091299 168.84209 89.091299 167.06409 C 89.091299 165.03209 91.072787 163.53355 93.511184 163.53355 z M 107.22714 163.53355 C 111.06254 163.53355 113.47534 166.47984 113.47534 170.92483 L 102.04555 170.92483 C 102.29955 173.82043 104.50919 176.10643 107.27779 176.10643 C 109.05578 176.10643 110.91016 175.4716 111.90076 174.3794 L 112.71311 175.24292 C 111.59551 176.46211 109.30971 177.27483 107.30311 177.27483 C 103.79791 177.27483 100.77534 174.22701 100.77534 170.36621 C 100.77534 166.50541 103.64575 163.53355 107.22714 163.53355 z M 122.51768 163.53355 C 124.27028 163.53355 125.8957 164.26987 127.0895 165.46367 L 126.20066 166.32718 C 125.26086 165.33658 123.94008 164.70196 122.51768 164.70196 C 119.44429 164.70196 117.15832 167.14034 117.15832 170.39153 C 117.15832 173.66813 119.44429 176.10643 122.51768 176.10643 C 123.94008 176.10643 125.26071 175.47137 126.2513 174.45537 L 127.11533 175.31888 C 125.92154 176.53808 124.29568 177.27483 122.51768 177.27483 C 118.73309 177.27483 115.88811 174.32853 115.88811 170.39153 C 115.88811 166.47994 118.73309 163.53355 122.51768 163.53355 z M 145.37779 163.53355 C 147.13038 163.53355 148.7558 164.26987 149.9496 165.46367 L 149.06077 166.32718 C 148.12097 165.33658 146.80018 164.70196 145.37779 164.70196 C 142.30439 164.70196 140.01842 167.14034 140.01842 170.39153 C 140.01842 173.66813 142.30439 176.10643 145.37779 176.10643 C 146.80018 176.10643 148.12081 175.47137 149.11141 174.45537 L 149.97492 175.31888 C 148.78112 176.53808 147.15578 177.27483 145.37779 177.27483 C 141.59319 177.27483 138.74822 174.32853 138.74822 170.39153 C 138.74822 166.47994 141.59319 163.53355 145.37779 163.53355 z M 158.63641 163.53355 C 162.4718 163.53355 164.88512 166.47984 164.88512 170.92483 L 153.45481 170.92483 C 153.70881 173.82043 155.91845 176.10643 158.68705 176.10643 C 160.46505 176.10643 162.31943 175.4716 163.31002 174.3794 L 164.12289 175.24292 C 163.0053 176.46211 160.71949 177.27483 158.71289 177.27483 C 155.20769 177.27483 152.18512 174.22701 152.18512 170.36621 C 152.18512 166.50541 155.05501 163.53355 158.63641 163.53355 z M 174.51141 163.53355 L 174.51141 164.70196 C 171.53961 164.70196 169.43161 166.75911 169.43161 169.62931 L 169.43161 176.96994 L 168.18673 176.96994 L 168.18673 163.83844 L 169.43161 163.83844 L 169.43161 166.70855 C 170.09201 164.85436 172.09841 163.53355 174.51141 163.53355 z M 190.81842 163.53355 C 192.39322 163.53355 194.09496 164.09245 195.51736 165.00685 L 194.83161 165.97165 C 193.56162 165.15885 192.11382 164.70196 190.81842 164.70196 C 189.09122 164.70196 187.64342 165.64164 187.64342 166.91164 C 187.64342 168.18164 188.71005 168.89291 191.37705 169.73111 C 194.12024 170.59471 195.64449 171.5851 195.64449 173.6425 C 195.64449 175.69989 193.56151 177.27483 191.02151 177.27483 C 189.16731 177.27483 187.13507 176.56348 185.58567 175.31888 L 186.29725 174.3794 C 187.79585 175.4716 189.49751 176.10643 191.02151 176.10643 C 192.92651 176.10643 194.3996 175.09034 194.3996 173.79494 C 194.3996 172.32174 193.18026 171.55955 190.76726 170.84835 C 187.61767 169.88315 186.39854 168.84209 186.39854 167.06409 C 186.39854 165.03209 188.38003 163.53355 190.81842 163.53355 z M 107.25246 164.70196 C 104.50927 164.70196 102.32495 166.83543 102.04555 169.75643 L 112.23097 169.75643 C 112.05317 166.78463 110.19886 164.70196 107.25246 164.70196 z M 158.66173 164.70196 C 155.91853 164.70196 153.73421 166.83543 153.45481 169.75643 L 163.64024 169.75643 C 163.46244 166.78463 161.60813 164.70196 158.66173 164.70196 z M 129.52811 169.45154 L 136.10652 169.45154 L 136.10652 170.67059 L 129.52811 170.67059 L 129.52811 169.45154 z " />
    <circle
       style="opacity:1;fill:#000000;stroke-width:0.81783;stroke-linecap:square;paint-order:markers stroke fill"
       id="path833-3"
       cx="59.321445"
       cy="169.68051"
       r="24.120024" />
    <path
       style="opacity:1;fill:#ffffff;stroke-width:1.70221;stroke-linecap:square;paint-order:markers stroke fill"
       id="path835-6"
       d="m 116.79591,120.92807 -9.93587,24.04724 -12.288555,-22.93431 -24.9958,7.22504 10.268973,-23.90689 -21.233385,-15.037769 25.093756,-6.877093 -1.481798,-25.976824 21.022429,15.331291 19.38561,-17.354802 1.12079,25.994901 25.65526,4.33574 -19.62484,17.083816 12.60598,22.76139 z"
       transform="matrix(-0.02807995,0.52181971,-0.52181971,-0.02807995,113.47851,118.0225)" />
  </g>
</svg>

<svg xmlns="http://www.w3.org/2000/svg" width="667.165" height="182.325" viewBox="0 0 176.521 48.24">
  <g transform="translate(-34.827 -145.56)">
    <path d="M71.608 156.162v27.353h139.7l-11.842-13.696 11.881-13.657H71.607zm106.79 4.07h1.244v3.606h3.378v1.169h-3.378v8.915c0 1.27.712 2.184 1.677 2.184.635 0 1.27-.254 1.727-.635l.635.966a3.992 3.992 0 0 1-2.439.838c-1.676 0-2.845-1.397-2.845-3.353v-8.915h-2.235v-1.169h2.235v-3.607zm-84.887 3.302c1.575 0 3.277.558 4.7 1.473l-.687.965c-1.27-.813-2.717-1.27-4.013-1.27-1.727 0-3.175.94-3.175 2.21s1.067 1.98 3.734 2.82c2.743.863 4.267 1.853 4.267 3.91 0 2.058-2.083 3.633-4.623 3.633-1.854 0-3.886-.712-5.436-1.956l.711-.94c1.5 1.093 3.201 1.727 4.725 1.727 1.905 0 3.378-1.016 3.378-2.311 0-1.473-1.219-2.235-3.632-2.947-3.15-.965-4.369-2.006-4.369-3.784 0-2.032 1.982-3.53 4.42-3.53zm13.716 0c3.836 0 6.248 2.946 6.248 7.39h-11.43c.255 2.896 2.464 5.182 5.233 5.182 1.778 0 3.632-.634 4.623-1.727l.812.864c-1.117 1.22-3.403 2.032-5.41 2.032-3.505 0-6.528-3.048-6.528-6.909 0-3.86 2.87-6.832 6.452-6.832zm15.29 0c1.753 0 3.379.736 4.573 1.93l-.89.863c-.94-.99-2.26-1.625-3.682-1.625-3.074 0-5.36 2.438-5.36 5.69 0 3.276 2.286 5.714 5.36 5.714 1.422 0 2.743-.635 3.733-1.65l.864.863c-1.193 1.22-2.82 1.956-4.597 1.956-3.785 0-6.63-2.946-6.63-6.883 0-3.912 2.845-6.858 6.63-6.858zm22.86 0c1.753 0 3.379.736 4.573 1.93l-.89.863c-.939-.99-2.26-1.625-3.682-1.625-3.074 0-5.36 2.438-5.36 5.69 0 3.276 2.286 5.714 5.36 5.714 1.422 0 2.743-.635 3.733-1.65l.864.863c-1.194 1.22-2.82 1.956-4.597 1.956-3.785 0-6.63-2.946-6.63-6.883 0-3.912 2.845-6.858 6.63-6.858zm13.26 0c3.835 0 6.248 2.946 6.248 7.39h-11.43c.254 2.896 2.463 5.182 5.232 5.182 1.778 0 3.632-.634 4.623-1.727l.813.864c-1.118 1.22-3.404 2.032-5.41 2.032-3.505 0-6.528-3.048-6.528-6.909 0-3.86 2.87-6.832 6.451-6.832zm15.874 0v1.168c-2.971 0-5.08 2.057-5.08 4.927v7.34h-1.244v-13.13h1.245v2.87c.66-1.855 2.666-3.175 5.08-3.175zm16.307 0c1.575 0 3.277.558 4.7 1.473l-.686.965c-1.27-.813-2.718-1.27-4.014-1.27-1.727 0-3.175.94-3.175 2.21s1.067 1.98 3.734 2.82c2.743.863 4.267 1.853 4.267 3.91 0 2.058-2.082 3.633-4.622 3.633-1.855 0-3.887-.712-5.436-1.956l.711-.94c1.499 1.093 3.2 1.727 4.725 1.727 1.905 0 3.378-1.016 3.378-2.311 0-1.473-1.22-2.235-3.633-2.947-3.15-.965-4.368-2.006-4.368-3.784 0-2.032 1.981-3.53 4.42-3.53zm-83.566 1.168c-2.743 0-4.927 2.133-5.206 5.054h10.185c-.178-2.971-2.032-5.054-4.979-5.054zm51.41 0c-2.743 0-4.928 2.133-5.207 5.054h10.185c-.178-2.971-2.032-5.054-4.978-5.054zm-29.134 4.75h6.579v1.219h-6.579v-1.22z" style="opacity:1;fill:#000;stroke:none;stroke-width:1.29835;stroke-linecap:square;paint-order:markers stroke fill"/>
    <circle cx="59.321" cy="169.681" r="24.12" style="opacity:1;fill:#000;stroke-width:.81783;stroke-linecap:square;paint-order:markers stroke fill"/>
    <path d="m116.796 120.928-9.936 24.047-12.289-22.934-24.995 7.225 10.269-23.907L58.61 90.321l25.094-6.877-1.482-25.977L103.246 72.8l19.385-17.355 1.121 25.995 25.655 4.336-19.625 17.083 12.606 22.762z" style="opacity:1;fill:#fff;stroke-width:1.70221;stroke-linecap:square;paint-order:markers stroke fill" transform="scale(-.52257) rotate(-86.92 -227.74 1.652)"/>
  </g>
</svg>
